templates/main/source/images/logo bg.svg

<?xml version="1.0" encoding="UTF-8"?>
<svg width="746px" height="100px" viewBox="0 0 746 100" version="1.1" xmlns="http://www.w3.org/2000/svg" xmlns:xlink="http://www.w3.org/1999/xlink">
    <!-- Generator: Sketch 53.2 (72643) - https://sketchapp.com -->
    <title>logo bg</title>
    <desc>Created with Sketch.</desc>
    <g id="Symbols" stroke="none" stroke-width="1" fill="none" fill-rule="evenodd" opacity="0.119140625">
        <g id="футер-hd-new" transform="translate(-345.000000, -95.000000)" fill="#9E9E9E" fill-rule="nonzero">
            <g id="футер-hd">
                <g id="подложка">
                    <path d="M604.090909,154.096986 L604.090909,176.818182 L611.63293,176.818182 C615.582648,176.818182 619.605059,174.199076 621.089232,171.14244 C622.264455,168.717793 623.070148,163.95965 620.980191,159.505348 C618.22387,153.635148 612.202368,154.163831 611.626873,154.090909 L604.090909,154.090909 L604.090909,154.096986 Z M604.090909,113.181818 L604.090909,131.363636 L610.139298,131.363636 C613.340231,131.363636 615.721293,129.27625 616.830819,126.826069 C617.709603,124.880646 618.342916,121.073926 616.74245,117.519586 C614.808144,113.213366 611.057357,113.223881 610.173664,113.181818 L604.090909,113.181818 L604.090909,113.181818 Z M554.090909,95 C554.090909,95 619.851065,95.0164264 631.089264,95.010951 C652.55894,94.989049 657.613746,111.645451 657.650836,121.419178 C657.714418,138.984509 645.803304,143.299185 645.803304,143.299185 C645.803304,143.299185 658.636364,148.303771 658.636364,167.024428 C658.636364,196.18682 632.758304,194.993166 628.752609,194.993166 L554.090909,194.993166 L554.090909,95 Z M858.636364,195 L858.636364,172.034279 L837.889258,172.034279 L837.889258,153.810645 L858.421014,153.810645 L858.421014,133.916877 L837.889258,133.916877 L837.889258,114.652831 L858.636364,114.652831 L858.636364,95 L790.454545,95 L790.454545,195 L858.636364,195 Z M732.953623,195 L781.363636,195 L781.363636,95 L732.953623,95 L732.953623,132.881941 L717.258733,132.881941 L717.258733,95 L667.727273,95 L667.727273,195 L717.258733,195 L717.258733,152.978316 L732.953623,152.978316 L732.953623,195 Z M549.545455,195 L549.545455,172.034279 L528.797891,172.034279 L528.797891,153.810645 L549.324903,153.810645 L549.324903,133.916877 L528.797891,133.916877 L528.797891,114.652831 L549.545455,114.652831 L549.545455,95 L481.363636,95 L481.363636,195 L549.545455,195 Z M422.272727,95 L472.272727,95 L472.272727,195 L422.272727,195 L422.272727,95 Z M417.727273,195 L417.727273,167.396233 L395.790303,167.396233 L395.790303,95 L345,95 L345,195 L417.727273,195 Z M913.181818,113.181818 L913.181818,135.909091 L919.456675,135.909091 C926.253953,135.909091 928.668699,133.003825 930.160501,129.935695 C931.344655,127.503257 932.134091,123.111209 930.166306,118.608835 C929.086635,116.160635 926.253953,113.187072 919.456675,113.187072 L913.181818,113.187072 L913.181818,113.181818 Z M867.727273,95.0109517 L942.746556,95 C966.256198,95 975.143251,110.78688 975.143251,124.410798 C975.143251,147.611981 954.096419,151.762677 954.096419,151.762677 L981.363636,195 L926.509642,195 L914.719008,166.279159 L914.741047,195 L867.727273,195 L867.727273,95.0109517 Z M1022.27273,113.181818 L1022.27273,135.909091 L1028.55291,135.909091 C1035.36128,135.909091 1037.77004,133.003825 1039.25012,129.935695 C1040.43418,127.503257 1041.22936,123.111209 1039.25012,118.608835 C1038.18214,116.160635 1035.36128,113.187072 1028.54711,113.187072 L1022.27273,113.187072 L1022.27273,113.181818 Z M976.818182,95.0109517 L1051.83372,95 C1075.35115,95 1084.23907,110.78688 1084.23907,124.410798 C1084.23907,147.611981 1063.19019,151.762677 1063.19019,151.762677 L1090.45455,195 L1035.60074,195 L1023.81447,166.279159 L1023.83101,195 L976.818182,195 L976.818182,95.0109517 Z" id="logo-bg"></path>
                </g>
            </g>
        </g>
    </g>
</svg>

<svg width="746" height="100" viewBox="0 0 746 100" xmlns="http://www.w3.org/2000/svg" xmlns:xlink="http://www.w3.org/1999/xlink"><g id="Symbols" stroke="none" stroke-width="1" fill="none" fill-rule="evenodd" opacity=".119"><g id="футер-hd-new" transform="translate(-345 -95)" fill="#9E9E9E" fill-rule="nonzero"><g id="футер-hd"><g id="подложка"><path d="M604.09 154.097v22.721h7.543c3.95 0 7.972-2.619 9.456-5.676 1.175-2.424 1.981-7.182-.109-11.637-2.756-5.87-8.778-5.341-9.353-5.414h-7.536v.006zm0-40.915v18.182h6.05c3.2 0 5.581-2.088 6.69-4.538.88-1.945 1.513-5.752-.088-9.306-1.934-4.307-5.685-4.296-6.568-4.338h-6.083zM554.09 95s65.761.016 77 .011c21.469-.022 26.524 16.634 26.56 26.408.064 17.566-11.847 21.88-11.847 21.88s12.833 5.005 12.833 23.725c0 29.163-25.878 27.97-29.883 27.97H554.09V95zm304.546 100v-22.966H837.89v-18.223h20.532v-19.894H837.89v-19.264h20.747V95h-68.181v100h68.181zm-125.682 0h48.41V95h-48.41v37.882h-15.695V95h-49.532v100h49.532v-42.022h15.695V195zm-183.409 0v-22.966h-20.747v-18.223h20.527v-19.894h-20.527v-19.264h20.747V95h-68.181v100h68.181zM422.273 95h50v100h-50V95zm-4.546 100v-27.604H395.79V95H345v100h72.727zm495.455-81.818v22.727h6.275c6.797 0 9.212-2.905 10.704-5.973 1.184-2.433 1.973-6.825.005-11.327-1.08-2.448-3.912-5.422-10.71-5.422h-6.274v-.005zM867.727 95.01l75.02-.011c23.51 0 32.396 15.787 32.396 29.41 0 23.202-21.047 27.353-21.047 27.353L981.364 195H926.51l-11.791-28.72.022 28.72h-47.014V95.011zm154.546 18.17v22.728h6.28c6.808 0 9.217-2.905 10.697-5.973 1.184-2.433 1.98-6.825 0-11.327-1.068-2.448-3.889-5.422-10.703-5.422h-6.274v-.005zm-45.455-18.17l75.016-.011c23.517 0 32.405 15.787 32.405 29.41 0 23.202-21.049 27.353-21.049 27.353L1090.455 195H1035.6l-11.787-28.72.017 28.72h-47.013V95.011z" id="logo-bg"/></g></g></g></g></svg>
